X: 10312
T: THERE'LL NEVER BE PEACE TILL JAMIE COMES HAME.
O: Jacobite air.
Q: "Very slow."
%R: air, waltz
B: W. Hamilton "Universal Tune-Book" Vol. 1 Glasgow 1844 p.31 #2
S: http://imslp.org/wiki/Hamilton's_Universal_Tune-Book_(Various)
Z: 2016 John Chambers <jc:trillian.mit.edu>
M: 3/4
L: 1/8
K: Am
% - - - - - - - - - - - - - - - - - - - - - - - - -
(A>B) |\
c3 B A2 | (B3 A G2) | (DE) G2 G>A | G4 (A>B) |\
c2 (dc) (BA) | (B2 e3) G | E2 A2 AB | A4 A>B |\
(c>B) (cd) (e^f) | (g3 ^f) e2 | (d2 B2) g2 | G4 AB |\
c2 (dc) (BA) | (B2 He3) G | E2 A2 A>B | A4 |]
% - - - - - - - - - - - - - - - - - - - - - - - - -

%%sep 1 1 500
%%sep 1 1 500

